X: 40266
T: To War
R: jig
M: 6/8
K: Eminor
|:GBB GBB|FAA FAA|GBB BBA|BBA GEE|
GBB GBB|FAA FAA|GBB BBA|~B2A GEE:|
|:eEE GFE|dDD FED|eEE GFE|~B2A GEE|
eEE GFE|dDD FED|GBB B2c|BBA GEE:|

